img/amazon-logo.svg

<svg width="200" height="35" viewBox="0 0 200 35" fill="none" xmlns="http://www.w3.org/2000/svg">
<g clip-path="url(#clip0_70_20)">
<path d="M65.9233 27.6884C59.7489 32.2329 50.8042 34.6457 43.0803 34.6457C32.2809 34.6457 22.5379 30.6634 15.1896 24.0341C14.6027 23.5188 15.1192 22.7926 15.8235 23.2143C23.7587 27.829 33.5956 30.5932 43.7376 30.5932C50.5694 30.5932 58.1055 29.1876 65.0312 26.2595C66.0642 25.791 66.9563 26.9154 65.9233 27.6884Z" fill="#FF9900"/>
<path d="M68.5057 24.7369C67.7309 23.7296 63.2938 24.2684 61.2983 24.5026C60.6879 24.5729 60.594 24.0575 61.1339 23.6827C64.6555 21.1997 70.4543 21.9259 71.1351 22.7457C71.8159 23.589 70.9708 29.375 67.637 32.1392C67.1205 32.5608 66.651 32.3266 66.8623 31.7644C67.6136 29.9138 69.2804 25.7676 68.5057 24.7369Z" fill="#FF9900"/>
<path d="M61.4156 6.18422V3.77144C61.4156 3.39663 61.6973 3.16238 62.026 3.16238H72.8254C73.1776 3.16238 73.4593 3.42006 73.4593 3.77144V5.83284C73.4593 6.18422 73.1541 6.62929 72.6376 7.35547L67.0266 15.3434C69.116 15.2966 71.2994 15.6011 73.201 16.6552C73.6236 16.8895 73.741 17.2408 73.7645 17.5922V20.169C73.7645 20.5204 73.3654 20.942 72.9663 20.7078C69.6325 18.9743 65.2189 18.7869 61.5565 20.7312C61.1809 20.942 60.7817 20.5204 60.7817 20.169V17.7328C60.7817 17.3345 60.7817 16.6786 61.1808 16.0696L67.7074 6.79327H62.0495C61.6973 6.79327 61.4156 6.53559 61.4156 6.18422Z" fill="#221F1F"/>
<path d="M21.9977 21.1997H18.7109C18.4057 21.1762 18.1475 20.942 18.124 20.6375V3.81828C18.124 3.49033 18.4057 3.20923 18.7579 3.20923H21.8334C22.1621 3.23265 22.3968 3.4669 22.4203 3.77143V5.97338H22.4907C23.289 3.8417 24.7915 2.85785 26.8105 2.85785C28.8765 2.85785 30.1442 3.8417 31.0833 5.97338C31.8815 3.8417 33.6892 2.85785 35.6143 2.85785C36.9995 2.85785 38.502 3.42005 39.4176 4.70843C40.4506 6.11393 40.2393 8.17534 40.2393 9.97907V20.614C40.2393 20.942 39.9576 21.2231 39.6054 21.2231H36.3187C35.99 21.1997 35.7317 20.942 35.7317 20.614V11.6657C35.7317 10.9629 35.8022 9.18262 35.6378 8.50329C35.4031 7.37889 34.6518 7.05094 33.7127 7.05094C32.9145 7.05094 32.0928 7.58971 31.7406 8.43301C31.412 9.27632 31.4354 10.7052 31.4354 11.6657V20.5906C31.4354 20.9186 31.1537 21.1997 30.8016 21.1997H27.5148C27.1861 21.1762 26.9279 20.9186 26.9279 20.5906V11.6657C26.9279 9.79167 27.2331 7.02751 24.9089 7.02751C22.5377 7.02751 22.6316 9.72139 22.6316 11.6657V20.5906C22.6316 20.942 22.3499 21.1997 21.9977 21.1997Z" fill="#221F1F"/>
<path d="M82.7795 2.85785C87.6627 2.85785 90.2921 7.05094 90.2921 12.345C90.2921 17.4751 87.381 21.5511 82.7795 21.5511C77.9902 21.5511 75.3843 17.358 75.3843 12.1576C75.3843 6.93381 78.0137 2.85785 82.7795 2.85785ZM82.803 6.27791C80.3849 6.27791 80.2205 9.58084 80.2205 11.6188C80.2205 13.6802 80.197 18.0607 82.7795 18.0607C85.3385 18.0607 85.4559 14.5235 85.4559 12.345C85.4559 10.9161 85.3854 9.22947 84.9629 7.87081C84.5872 6.74641 83.8595 6.27791 82.803 6.27791Z" fill="#221F1F"/>
<path d="M96.631 21.1997H93.3442C93.0156 21.1763 92.7573 20.9186 92.7573 20.5906V3.748C92.7808 3.44348 93.0625 3.20923 93.3912 3.20923H96.4432C96.7249 3.23265 96.9597 3.42005 97.0301 3.67773V6.25448H97.1006C98.0162 3.95883 99.3074 2.85785 101.585 2.85785C103.064 2.85785 104.496 3.39663 105.435 4.84898C106.304 6.20763 106.304 8.45644 106.304 10.0962V20.7078C106.257 21.0123 105.998 21.2465 105.67 21.2465H102.383C102.078 21.2231 101.843 21.0123 101.796 20.7078V11.5251C101.796 9.67454 102.007 6.98066 99.73 6.98066C98.9318 6.98066 98.204 7.51944 97.8283 8.33931C97.3588 9.37002 97.3118 10.4007 97.3118 11.5251V20.5906C97.2649 20.942 96.9832 21.1997 96.631 21.1997Z" fill="#221F1F"/>
<path d="M56.1332 21.1763C55.9219 21.3637 55.5932 21.3871 55.3584 21.2465C54.2785 20.3329 54.0672 19.9113 53.4803 19.068C51.6726 20.8952 50.4048 21.4574 48.0571 21.4574C45.2868 21.4574 43.127 19.7473 43.127 16.3507C43.127 13.6802 44.559 11.8765 46.625 10.9863C48.4093 10.2133 50.8978 10.0728 52.7994 9.83852V9.41687C52.7994 8.64384 52.8699 7.70684 52.4003 7.05094C52.0012 6.44188 51.2265 6.20763 50.5457 6.20763C49.3014 6.20763 48.1745 6.84011 47.8928 8.17534C47.8458 8.47986 47.611 8.76096 47.3293 8.78439L44.1365 8.43301C43.8782 8.36274 43.573 8.15191 43.6434 7.75369C44.3712 3.88855 47.8693 2.74072 50.9917 2.74072C52.5882 2.74072 54.6776 3.16237 55.9454 4.38048C57.5418 5.87968 57.4009 7.87081 57.4009 10.0259V15.1326C57.4009 16.6786 58.0348 17.3345 58.6452 18.1778C58.8565 18.4824 58.9035 18.8337 58.6217 19.0446C57.9879 19.5599 56.7905 20.5906 56.1332 21.1763Z" fill="#221F1F"/>
<path d="M52.7997 13.1649C52.7997 14.4533 52.8232 15.5074 52.1893 16.6552C51.6728 17.5688 50.8276 18.1544 49.912 18.1544C48.6443 18.1544 47.9165 17.194 47.9165 15.7885C47.9165 13.0009 50.4285 12.4856 52.7997 12.4856V13.1649Z" fill="white"/>
<path d="M13.0062 21.1763C12.7949 21.3637 12.4663 21.3871 12.2315 21.2465C11.1515 20.333 10.9403 19.9113 10.3533 19.068C8.5456 20.8952 7.25437 21.4339 4.93016 21.4339C2.15988 21.4339 0 19.7239 0 16.3273C0 13.6568 1.45557 11.8531 3.49806 10.9629C5.28231 10.1899 7.77087 10.0494 9.6725 9.81511V9.39346C9.6725 8.62043 9.74293 7.68343 9.27339 7.02753C8.87428 6.41848 8.09954 6.18422 7.41871 6.18422C6.17443 6.18422 5.04754 6.8167 4.76582 8.15193C4.71886 8.45646 4.48409 8.73756 4.20237 8.76098L1.03299 8.40961C0.774739 8.33933 0.469539 8.1285 0.53997 7.73028C1.26775 3.86514 4.76582 2.71732 7.88825 2.71732C9.48468 2.71732 11.5741 3.13897 12.8419 4.35707C14.4383 5.85627 14.2975 7.8474 14.2975 10.0025V15.1092C14.2975 16.6552 14.9313 17.3111 15.5417 18.1544C15.753 18.459 15.8 18.8103 15.5417 19.0212C14.8609 19.5599 13.6636 20.5906 13.0062 21.1763Z" fill="#221F1F"/>
<path d="M9.69619 13.1649C9.69619 14.4533 9.71967 15.5074 9.08579 16.6552C8.5693 17.5688 7.72413 18.1544 6.80853 18.1544C5.54077 18.1544 4.81299 17.194 4.81299 15.7885C4.81299 13.0009 7.32502 12.4856 9.69619 12.4856V13.1649Z" fill="white"/>
<path d="M121.141 0C118.23 0 116.304 0.0468501 115.436 0.14055C115.06 0.187401 114.872 0.304526 114.825 0.491926L114.778 0.702752C113.98 4.16966 113.065 7.4726 112.079 10.6116C111.726 11.7125 111.163 13.3991 110.412 15.6245C109.684 17.8499 109.121 19.5131 108.768 20.6375C108.674 20.9186 108.792 21.0826 109.097 21.0826C109.778 21.0826 110.764 21.106 112.102 21.1294C113.44 21.1763 114.426 21.1997 115.107 21.1997C115.342 21.1997 115.483 21.0826 115.553 20.8483C115.694 20.4032 115.858 19.7239 116.046 18.8103C116.234 17.8967 116.398 17.2174 116.539 16.7489C116.657 16.3741 116.962 16.1867 117.431 16.1867C117.877 16.1867 118.511 16.2101 119.38 16.257C120.249 16.3038 120.906 16.3273 121.352 16.3273C123.981 16.3273 126.282 15.5308 128.278 13.9379C130.156 12.4387 131.471 10.471 132.245 8.05822C132.997 5.69229 132.785 3.77144 131.635 2.31908C130.532 0.866727 128.653 0.14055 126.071 0.0702752C124.498 0.0234251 122.855 0 121.141 0ZM152.999 0.398226C152.13 0.398226 151.285 0.632477 150.51 1.07755C149.665 1.56948 149.125 2.22538 148.89 2.99841C148.632 3.81829 148.75 4.47419 149.266 4.94269C149.736 5.38776 150.416 5.59859 151.356 5.59859C153.515 5.59859 154.854 4.73186 155.417 2.97498C155.652 2.20196 155.534 1.56948 155.018 1.07755C154.525 0.632477 153.868 0.398226 152.999 0.398226ZM122.995 4.77871C125.484 4.77871 126.376 5.94997 125.625 8.26905C124.921 10.471 123.395 11.5486 121 11.5486C119.028 11.5486 118.065 11.4549 118.136 11.244C118.23 10.9395 118.37 10.471 118.511 9.88538C118.676 9.27633 118.817 8.80782 118.91 8.5033C119.591 6.32477 120.014 5.15351 120.131 5.03639C120.296 4.87241 121.235 4.77871 122.995 4.77871ZM194.342 5.80942C191.83 5.80942 189.576 6.58244 187.58 8.10507C185.632 9.58085 184.317 11.4549 183.566 13.7739C182.815 16.1399 183.049 18.0373 184.247 19.4428C185.421 20.8249 187.299 21.5276 189.905 21.5276C192.722 21.5276 195.023 20.8717 196.783 19.5599C196.995 19.396 197.112 19.2788 197.136 19.2086C197.206 18.9509 197.136 18.3653 196.877 17.4517C196.643 16.5381 196.408 16.0227 196.22 15.929L194.741 16.6552C193.591 17.1471 192.534 17.3814 191.572 17.3814C190.75 17.3814 190.069 17.2408 189.529 16.9597C188.848 16.6084 188.543 16.1164 188.59 15.4605C191.219 15.2731 193.191 15.1326 194.53 14.992C196.736 14.7812 197.91 14.6875 198.051 14.6641C198.802 14.5235 199.342 13.9379 199.671 12.9306C200.281 10.9864 200.07 9.32318 199.061 7.91767C198.004 6.51217 196.455 5.80942 194.342 5.80942ZM168.611 6.16079C167.625 6.16079 166.639 6.34819 165.676 6.72299C165.019 6.98067 164.08 7.4726 162.883 8.17535C162.718 8.26905 162.554 8.33932 162.437 8.38617C162.366 8.38617 162.437 8.0348 162.624 7.35547C162.836 6.65272 162.836 6.30134 162.624 6.30134C162.296 6.30134 161.85 6.37162 161.263 6.51217C160.441 6.69957 159.972 6.81669 159.854 6.81669C159.69 6.84012 159.197 6.88697 158.352 6.95724C157.671 7.02752 157.178 7.0978 156.92 7.19149C156.755 7.26177 156.638 7.35547 156.567 7.54287C156.544 7.61315 156.52 7.68342 156.52 7.82397C156.121 9.88538 155.675 11.736 155.159 13.3757C154.901 14.1722 154.525 15.3903 154.008 16.9832C153.492 18.5761 153.116 19.7708 152.858 20.5672C152.788 20.8249 152.764 20.9654 152.788 21.0123C152.835 21.0591 152.975 21.106 153.234 21.106C154.102 21.1763 154.877 21.1997 155.558 21.1997C156.614 21.1997 157.413 21.1763 157.906 21.1294C158.187 21.106 158.375 21.0591 158.446 21.0123C158.539 20.942 158.61 20.8015 158.704 20.5438C158.986 19.6536 159.408 18.295 159.972 16.4678C160.535 14.6641 160.958 13.282 161.263 12.3684C161.404 11.9468 161.826 11.572 162.554 11.1972C163.211 10.8458 163.798 10.6818 164.291 10.6818C165.489 10.6818 165.864 11.408 165.395 12.8369C165.277 13.2117 165.113 13.7739 164.878 14.5235C164.667 15.2731 164.503 15.8353 164.385 16.2101C164.244 16.7021 163.986 17.4048 163.657 18.3418C163.329 19.2788 163.094 19.9816 162.93 20.4501C162.789 20.8717 162.883 21.0591 163.188 21.0591H168.189C168.517 21.0591 168.728 20.8952 168.822 20.5672C168.963 20.0753 169.175 19.3725 169.456 18.4121C169.738 17.4517 169.949 16.7255 170.09 16.257C170.747 14.219 171.147 12.9775 171.334 12.5558C171.546 12.0639 171.968 11.6423 172.579 11.244C173.213 10.8458 173.799 10.635 174.316 10.635C175.49 10.635 175.912 11.2206 175.607 12.4153C175.419 13.1649 175.044 14.4064 174.48 16.1633C174.339 16.6318 174.105 17.3111 173.776 18.2481C173.447 19.1617 173.213 19.841 173.072 20.3095C172.931 20.7312 173.025 20.9889 173.33 21.0357C173.635 21.106 174.457 21.1294 175.795 21.1294C177.086 21.1294 177.908 21.106 178.26 21.0591C178.612 21.0123 178.824 20.8249 178.941 20.4735C179.152 19.841 179.434 18.904 179.786 17.6391C180.162 16.3741 180.443 15.4137 180.631 14.7812C180.796 14.2424 181.077 13.446 181.429 12.3919C181.805 11.3143 182.063 10.5179 182.251 9.97908C182.65 8.6907 182.462 7.70685 181.641 7.02752C180.913 6.41847 179.833 6.11394 178.377 6.11394C177.415 6.11394 176.335 6.34819 175.161 6.84012C173.987 7.33205 173.001 7.9411 172.18 8.66727C172.18 7.8474 171.804 7.19149 171.053 6.72299C170.442 6.37162 169.621 6.16079 168.611 6.16079ZM140.11 6.25449C140.063 6.25449 139.101 6.41847 137.269 6.72299C136.049 6.88697 135.133 7.00409 134.523 7.05094C134.335 7.0978 134.217 7.19149 134.17 7.35547C134.147 7.42575 134.147 7.49602 134.123 7.58972C134.123 9.11235 133.724 11.0566 132.997 13.3991C132.738 14.1956 132.363 15.4137 131.846 17.0066C131.33 18.5995 130.954 19.7942 130.696 20.5906C130.602 20.8717 130.743 21.0357 131.071 21.0826C131.682 21.1528 132.504 21.1763 133.537 21.1763C134.616 21.1763 135.438 21.1528 135.978 21.106C136.354 21.0826 136.565 20.942 136.659 20.7078C136.753 20.4267 136.87 20.005 136.988 19.4194C137.129 18.8338 137.246 18.4121 137.34 18.1076C137.481 17.6859 137.668 17.03 137.927 16.1633C138.185 15.2731 138.396 14.6172 138.537 14.1956C138.795 13.3991 139.124 12.8838 139.523 12.6261C139.946 12.3684 140.603 12.2279 141.519 12.2279C141.707 12.2279 142.012 12.2513 142.387 12.2747C142.786 12.2982 143.092 12.2982 143.303 12.2982C143.772 12.2982 144.078 12.1108 144.195 11.7125C144.266 11.5251 144.359 11.1269 144.524 10.5413C144.665 10.0494 144.782 9.67455 144.876 9.39345C144.97 9.13577 145.134 8.73755 145.392 8.15192C145.627 7.61315 145.792 7.21492 145.885 6.91039C145.956 6.67614 145.698 6.55902 145.087 6.55902C144.101 6.55902 142.998 6.81669 141.777 7.35547C140.674 7.82397 140.134 8.08165 140.157 8.1285C140.04 8.08165 140.04 7.77712 140.181 7.19149C140.321 6.55902 140.298 6.25449 140.11 6.25449ZM148.092 6.76984C147.787 6.76984 147.623 6.86354 147.552 7.07437C147.529 7.12122 147.505 7.23835 147.482 7.3789C147.2 9.0655 146.59 11.3377 145.698 14.1722C145.486 14.8749 145.134 15.929 144.641 17.3111C144.172 18.6932 143.819 19.7239 143.608 20.4267C143.514 20.6843 143.491 20.8483 143.491 20.8717C143.514 20.9654 143.655 21.0357 143.866 21.0591C144.219 21.1294 145.064 21.1528 146.378 21.1528C147.693 21.1528 148.538 21.1294 148.937 21.0591C149.219 21.0123 149.407 20.8952 149.477 20.6843C149.712 19.9582 150.041 18.8806 150.463 17.4282C150.886 15.9759 151.215 14.8749 151.449 14.1487C152.271 11.572 153.116 9.29975 153.961 7.35547C154.032 7.21492 154.079 7.12122 154.079 7.07437C154.149 6.86354 154.032 6.76984 153.774 6.76984C153.445 6.76984 152.975 6.79327 152.318 6.84012C151.661 6.88697 151.168 6.91039 150.863 6.91039C150.557 6.91039 150.064 6.88697 149.454 6.81669C148.844 6.81669 148.397 6.76984 148.092 6.76984ZM192.464 9.67455C193.144 9.67455 193.638 9.9088 193.966 10.3773C194.295 10.8458 194.365 11.3846 194.177 12.0171C194.154 12.1342 193.943 12.2045 193.567 12.2513C191.783 12.4856 190.492 12.6027 189.67 12.6027C189.365 12.6027 189.247 12.4621 189.341 12.2045C189.553 11.5486 189.952 10.9629 190.515 10.471C191.125 9.93223 191.783 9.67455 192.464 9.67455Z" fill="#4FA3C3"/>
</g>
<defs>
<clipPath id="clip0_70_20">
<rect width="200" height="34.6457" fill="white"/>
</clipPath>
</defs>
</svg>

<svg width="200" height="35" fill="none" xmlns="http://www.w3.org/2000/svg"><g clip-path="url(#clip0_70_20)"><path d="M65.923 27.688c-6.174 4.545-15.119 6.958-22.843 6.958-10.8 0-20.542-3.983-27.89-10.612-.587-.515-.07-1.241.633-.82 7.936 4.615 17.773 7.38 27.915 7.38 6.831 0 14.367-1.406 21.293-4.335 1.033-.468 1.925.656.892 1.43z" fill="#F90"/><path d="M68.506 24.737c-.775-1.007-5.212-.469-7.208-.234-.61.07-.704-.445-.164-.82 3.522-2.483 9.32-1.757 10.001-.937.68.843-.164 6.629-3.498 9.393-.516.422-.986.188-.775-.375.752-1.85 2.418-5.996 1.644-7.027z" fill="#F90"/><path d="M61.416 6.184V3.771c0-.374.281-.609.61-.609h10.8c.352 0 .633.258.633.61v2.06c0 .352-.305.797-.821 1.523l-5.611 7.988c2.089-.046 4.272.258 6.174 1.312.423.235.54.586.564.937v2.577c0 .351-.4.773-.799.539-3.334-1.734-7.747-1.921-11.41.023-.375.211-.774-.21-.774-.562v-2.436c0-.399 0-1.054.399-1.663l6.526-9.277H62.05c-.353 0-.634-.257-.634-.609zM21.998 21.2H18.71a.628.628 0 01-.587-.563V3.819c0-.328.282-.609.634-.609h3.075a.61.61 0 01.587.562v2.202h.07c.799-2.131 2.302-3.115 4.32-3.115 2.067 0 3.334.984 4.273 3.115.799-2.131 2.606-3.115 4.531-3.115 1.386 0 2.888.562 3.804 1.85 1.033 1.406.821 3.467.821 5.271v10.635c0 .328-.281.61-.634.61H36.32a.616.616 0 01-.587-.61v-8.948c0-.703.07-2.483-.094-3.163-.235-1.124-.986-1.452-1.925-1.452-.799 0-1.62.539-1.972 1.382-.329.843-.306 2.272-.306 3.233v8.925c0 .328-.281.609-.633.609h-3.287a.616.616 0 01-.587-.61v-8.924c0-1.874.305-4.638-2.02-4.638-2.37 0-2.276 2.693-2.276 4.638v8.925c0 .351-.282.609-.634.609zM82.78 2.858c4.883 0 7.512 4.193 7.512 9.487 0 5.13-2.911 9.206-7.513 9.206-4.789 0-7.395-4.193-7.395-9.393 0-5.224 2.63-9.3 7.395-9.3zm.023 3.42c-2.418 0-2.582 3.303-2.582 5.34 0 2.062-.024 6.443 2.558 6.443 2.56 0 2.677-3.537 2.677-5.716 0-1.429-.07-3.116-.493-4.474-.376-1.125-1.103-1.593-2.16-1.593zM96.631 21.2h-3.287a.616.616 0 01-.587-.61V3.749c.024-.305.305-.539.634-.539h3.052c.282.024.517.211.587.469v2.576h.07c.916-2.295 2.207-3.396 4.485-3.396 1.479 0 2.911.539 3.85 1.991.869 1.359.869 3.607.869 5.247v10.612a.635.635 0 01-.634.539h-3.287a.626.626 0 01-.587-.54v-9.182c0-1.85.211-4.544-2.066-4.544-.798 0-1.526.538-1.902 1.358-.47 1.031-.516 2.062-.516 3.186v9.066a.685.685 0 01-.681.609zM56.133 21.176a.675.675 0 01-.775.07c-1.08-.913-1.29-1.335-1.878-2.178-1.807 1.827-3.075 2.39-5.423 2.39-2.77 0-4.93-1.71-4.93-5.107 0-2.67 1.432-4.474 3.498-5.365 1.784-.773 4.273-.913 6.174-1.147v-.422c0-.773.07-1.71-.399-2.366-.399-.61-1.173-.843-1.854-.843-1.245 0-2.371.632-2.653 1.967-.047.305-.282.586-.564.61l-3.193-.352c-.258-.07-.563-.281-.493-.68.728-3.864 4.226-5.012 7.349-5.012 1.596 0 3.686.421 4.953 1.64 1.597 1.499 1.456 3.49 1.456 5.645v5.107c0 1.546.634 2.201 1.244 3.045.211.304.258.656-.023.867a93.732 93.732 0 00-2.489 2.131z" fill="#221F1F"/><path d="M52.8 13.165c0 1.288.023 2.342-.61 3.49-.517.914-1.362 1.5-2.278 1.5-1.268 0-1.995-.961-1.995-2.367 0-2.787 2.511-3.302 4.883-3.302v.679z" fill="#fff"/><path d="M13.006 21.176a.675.675 0 01-.774.07c-1.08-.913-1.292-1.335-1.879-2.178-1.807 1.827-3.099 2.366-5.423 2.366-2.77 0-4.93-1.71-4.93-5.107 0-2.67 1.456-4.474 3.498-5.364 1.784-.773 4.273-.914 6.174-1.148v-.422c0-.773.07-1.71-.399-2.365-.399-.61-1.173-.844-1.854-.844-1.245 0-2.371.633-2.653 1.968-.047.304-.282.586-.564.609L1.033 8.41C.775 8.34.47 8.129.54 7.73c.728-3.865 4.226-5.013 7.348-5.013 1.597 0 3.686.422 4.954 1.64 1.596 1.5 1.455 3.49 1.455 5.645v5.107c0 1.546.634 2.202 1.245 3.045.211.305.258.656 0 .867a72.43 72.43 0 00-2.536 2.155z" fill="#221F1F"/><path d="M9.696 13.165c0 1.288.024 2.342-.61 3.49-.517.914-1.362 1.5-2.277 1.5-1.268 0-1.996-.961-1.996-2.367 0-2.787 2.512-3.302 4.883-3.302v.679z" fill="#fff"/><path d="M121.141 0c-2.911 0-4.837.047-5.705.14-.376.047-.564.165-.611.352l-.047.21a131.393 131.393 0 01-2.699 9.91c-.353 1.1-.916 2.787-1.667 5.012-.728 2.226-1.291 3.89-1.644 5.013-.094.282.024.446.329.446.681 0 1.667.023 3.005.046 1.338.047 2.324.07 3.005.07.235 0 .376-.116.446-.35.141-.446.305-1.125.493-2.039.188-.913.352-1.593.493-2.061.118-.375.423-.562.892-.562.446 0 1.08.023 1.949.07.869.047 1.526.07 1.972.07 2.629 0 4.93-.796 6.926-2.39 1.878-1.498 3.193-3.466 3.967-5.879.752-2.366.54-4.287-.61-5.739C130.532.867 128.653.141 126.071.07c-1.573-.047-3.216-.07-4.93-.07zm31.858.398c-.869 0-1.714.234-2.489.68-.845.491-1.385 1.147-1.62 1.92-.258.82-.14 1.476.376 1.945.47.445 1.15.656 2.09.656 2.159 0 3.498-.867 4.061-2.624.235-.773.117-1.406-.399-1.897-.493-.446-1.15-.68-2.019-.68zm-30.004 4.38c2.489 0 3.381 1.172 2.63 3.491-.704 2.202-2.23 3.28-4.625 3.28-1.972 0-2.935-.094-2.864-.305.094-.304.234-.773.375-1.359.165-.609.306-1.077.399-1.382.681-2.178 1.104-3.35 1.221-3.467.165-.164 1.104-.257 2.864-.257zm71.347 1.031c-2.512 0-4.766.773-6.762 2.296-1.948 1.476-3.263 3.35-4.014 5.669-.751 2.366-.517 4.263.681 5.669 1.174 1.382 3.052 2.085 5.658 2.085 2.817 0 5.118-.656 6.878-1.968.212-.164.329-.281.353-.351.07-.258 0-.844-.259-1.757-.234-.914-.469-1.43-.657-1.523l-1.479.726c-1.15.492-2.207.726-3.169.726-.822 0-1.503-.14-2.043-.421-.681-.352-.986-.844-.939-1.5 2.629-.187 4.601-.327 5.94-.468 2.206-.21 3.38-.305 3.521-.328.751-.14 1.291-.726 1.62-1.733.61-1.945.399-3.608-.61-5.013-1.057-1.406-2.606-2.109-4.719-2.109zm-25.731.352c-.986 0-1.972.187-2.935.562-.657.258-1.596.75-2.793 1.452a3.683 3.683 0 01-.446.211c-.071 0 0-.351.187-1.03.212-.703.212-1.055 0-1.055-.328 0-.774.07-1.361.211-.822.188-1.291.305-1.409.305-.164.023-.657.07-1.502.14-.681.07-1.174.14-1.432.234a.581.581 0 00-.353.352c-.023.07-.047.14-.047.281-.399 2.061-.845 3.912-1.361 5.552-.258.796-.634 2.014-1.151 3.607-.516 1.593-.892 2.788-1.15 3.584-.07.258-.094.398-.07.445.047.047.187.094.446.094.868.07 1.643.094 2.324.094 1.056 0 1.855-.024 2.348-.07.281-.024.469-.07.54-.118.093-.07.164-.21.258-.468.282-.89.704-2.249 1.268-4.076.563-1.804.986-3.186 1.291-4.1.141-.421.563-.796 1.291-1.17.657-.352 1.244-.516 1.737-.516 1.198 0 1.573.726 1.104 2.155-.118.375-.282.937-.517 1.687-.211.75-.375 1.311-.493 1.686-.141.492-.399 1.195-.728 2.132-.328.937-.563 1.64-.727 2.108-.141.422-.047.61.258.61h5.001c.328 0 .539-.165.633-.493.141-.492.353-1.195.634-2.155.282-.96.493-1.686.634-2.155.657-2.038 1.057-3.28 1.244-3.701.212-.492.634-.914 1.245-1.312.634-.398 1.22-.609 1.737-.609 1.174 0 1.596.586 1.291 1.78-.188.75-.563 1.991-1.127 3.748a55.492 55.492 0 01-.704 2.085 45.166 45.166 0 00-.704 2.061c-.141.422-.047.68.258.727.305.07 1.127.093 2.465.093 1.291 0 2.113-.023 2.465-.07.352-.047.564-.234.681-.585.211-.633.493-1.57.845-2.835.376-1.265.657-2.225.845-2.858.165-.539.446-1.335.798-2.39.376-1.077.634-1.873.822-2.412.399-1.288.211-2.272-.61-2.951-.728-.61-1.808-.914-3.264-.914-.962 0-2.042.234-3.216.726-1.174.492-2.16 1.101-2.981 1.827 0-.82-.376-1.476-1.127-1.944-.611-.351-1.432-.562-2.442-.562zm-28.501.093c-.047 0-1.009.164-2.841.469-1.22.164-2.136.281-2.746.328-.188.047-.306.14-.353.304-.023.07-.023.141-.047.235 0 1.522-.399 3.467-1.126 5.81-.259.796-.634 2.014-1.151 3.607-.516 1.592-.892 2.787-1.15 3.584-.094.28.047.445.375.492.611.07 1.433.093 2.466.093 1.079 0 1.901-.023 2.441-.07.376-.023.587-.164.681-.398a11 11 0 00.329-1.289c.141-.585.258-1.007.352-1.311.141-.422.328-1.078.587-1.945.258-.89.469-1.546.61-1.967.258-.797.587-1.312.986-1.57.423-.258 1.08-.398 1.996-.398.188 0 .493.023.868.047.399.023.705.023.916.023.469 0 .775-.187.892-.585.071-.188.164-.586.329-1.172.141-.492.258-.866.352-1.148.094-.257.258-.655.516-1.241.235-.539.4-.937.493-1.242.071-.234-.187-.351-.798-.351-.986 0-2.089.258-3.31.796-1.103.469-1.643.727-1.62.774-.117-.047-.117-.352.024-.938.14-.632.117-.937-.071-.937zm7.982.516c-.305 0-.469.094-.54.304a1.48 1.48 0 00-.07.305c-.282 1.687-.892 3.959-1.784 6.793a71.862 71.862 0 01-1.057 3.14c-.469 1.381-.822 2.412-1.033 3.115a1.884 1.884 0 00-.117.445c.023.093.164.164.375.187.353.07 1.198.094 2.512.094 1.315 0 2.16-.024 2.559-.094.282-.047.47-.164.54-.375.235-.726.564-1.803.986-3.256.423-1.452.752-2.553.986-3.28.822-2.576 1.667-4.848 2.512-6.793.071-.14.118-.234.118-.28.07-.211-.047-.305-.305-.305-.329 0-.799.023-1.456.07-.657.047-1.15.07-1.455.07-.306 0-.799-.023-1.409-.093-.61 0-1.057-.047-1.362-.047zm44.372 2.905c.68 0 1.174.234 1.502.702.329.469.399 1.008.211 1.64-.023.117-.234.188-.61.234-1.784.235-3.075.352-3.897.352-.305 0-.423-.14-.329-.399.212-.655.611-1.241 1.174-1.733.61-.539 1.268-.796 1.949-.796z" fill="#4FA3C3"/></g><defs><clipPath id="clip0_70_20"><path fill="#fff" d="M0 0h200v34.646H0z"/></clipPath></defs></svg>
